packages/foundations/assets/icons/functional/images/business & payment/ticket_32.svg

<svg width="32" height="32" viewBox="0 0 32 32" fill="none" xmlns="http://www.w3.org/2000/svg">
<g clip-path="url(#clip0_184_148)">
<path fill-rule="evenodd" clip-rule="evenodd" d="M23 2C23.7956 2 24.5587 2.31607 25.1213 2.87868C25.6839 3.44129 26 4.20435 26 5V27C26 27.7956 25.6839 28.5587 25.1213 29.1213C24.5587 29.6839 23.7956 30 23 30H9C8.20435 30 7.44129 29.6839 6.87868 29.1213C6.31607 28.5587 6 27.7956 6 27V5C6 4.20435 6.31607 3.44129 6.87868 2.87868C7.44129 2.31607 8.20435 2 9 2H23ZM23 4H9C8.437 4 8 4.438 8 5V27C8 27.563 8.438 28 9 28H23C23.563 28 24 27.562 24 27V5C24 4.437 23.562 4 23 4ZM10 23C10 22.437 10.438 22 11 22H12C12.563 22 13 22.438 13 23C13 23.563 12.562 24 12 24H11C10.437 24 10 23.562 10 23ZM14.5 23C14.5 22.437 14.938 22 15.5 22H16.5C17.063 22 17.5 22.438 17.5 23C17.5 23.563 17.062 24 16.5 24H15.5C14.937 24 14.5 23.562 14.5 23ZM19 23C19 22.437 19.438 22 20 22H21C21.563 22 22 22.438 22 23C22 23.563 21.562 24 21 24H20C19.437 24 19 23.562 19 23Z" fill="#1A1C1F"/>
</g>
<defs>
<clipPath id="clip0_184_148">
<rect width="32" height="32" fill="white"/>
</clipPath>
</defs>
</svg>

<svg xmlns="http://www.w3.org/2000/svg" width="32" height="32" fill="none"><g clip-path="url(#a)"><path fill="#1A1C1F" fill-rule="evenodd" d="M23 2a3 3 0 0 1 3 3v22a3 3 0 0 1-3 3H9a3 3 0 0 1-3-3V5a3 3 0 0 1 3-3zm0 2H9c-.563 0-1 .438-1 1v22c0 .563.438 1 1 1h14c.563 0 1-.438 1-1V5c0-.563-.438-1-1-1M10 23c0-.563.438-1 1-1h1c.563 0 1 .438 1 1s-.438 1-1 1h-1c-.563 0-1-.438-1-1m4.5 0c0-.563.438-1 1-1h1c.563 0 1 .438 1 1s-.438 1-1 1h-1c-.563 0-1-.438-1-1m4.5 0c0-.563.438-1 1-1h1c.563 0 1 .438 1 1s-.438 1-1 1h-1c-.563 0-1-.438-1-1" clip-rule="evenodd"/></g><defs><clipPath id="a"><path fill="#fff" d="M0 0h32v32H0z"/></clipPath></defs></svg>
